X: 7937
T: Conditor Alme Siderum
R: reel
M: 4/4
K: Dmajor
F2 D2 F2 A2|B2 B2 G2 HA2|A2 B2 G2 A2|G2 F2 E2 HF2|
A2 G2 E2 F2|G2 F2 E2 HD2|D2 F2 G2 A2|G2 F2 E2 HF2||
F2 G2 F2 E2|(F4 F4)||

